!!! OTL: Berkowitz387
!!! Chapter: 1
!!! Section: III
!!! Page: 95
!!! Mode: 
!!! Encoder: DJB
**kern
*staff1
*I"Piano
=1-
*clefG2
*k[f#]
*G:
*M4/4
2r
4r
8g/L
8fn/J
=2
8e/L
8g#/
8b/
8dd/J
4ffn\
8ee\L
8dd\J
=3
8cc\L
8b\
8cc\
8dd\J
4ee-\
8dd\L
8cc\J
=4
8b\L
8a#\
8b\
8dd\J
8an\L
8g#\
8a\
8dd\J
=5
8g/L
8f#/
8g/
8b/J
4a/
8g/L
8fn/J
=6
!!linebreak:original
8e/L
8g#/
8b/
8dd/J
4ffn\
8ee\L
8dd\J
=7
8cc\L
8b\
8cc\
8dd\J
4ee-\
8dd\L
8cc\J
=8
4b\
8a/L
8g/J
4b-\
8a/L
8g/J
=9
8f#/L
8e/
8d/
8f#/J
4g/
4r
==
*-
